X:1
T:Wonderful Love (Watson), 10.8.10.7.8.10
T:Adam Watson (1845-1912)
T:Wonderful Love (Watson), 10.8.10.7.8.10
T:Public Domain
C:Adam Watson (1845-1912)
Z:Public Domain
%%score ( 1 2 ) ( 3 4 )
L:1/8
M:6/4
K:Eb
V:1 treble 
V:2 treble 
V:3 bass 
V:4 bass 
V:1
 [EG]4 [EG][EG] [EG]2 E2 [EF]2 | [EG]2 E2 [EA]2 [EG]6 | [EG]2 [CF]2 C2 [DF]6 | %3
 [DG]2 [B,F]2 B,2 [B,E]6 | [EG]4 [EG][EG] [EG]2 E2 [EF]2 | [EG]2 E2 [EA]2 [EG]6 | %6
 [EF]4 [EG][EF] [EF]2 [EG]2 [EF]2 | [D-F]6 [DB]6 | [EB]2 [EG]2 [Ec]2 [EB]6 | %9
 [DA]2 [DF]2 [DA]2 [EG]6 | [EG]2 [DA]2 [EB]2 [Ec]2 [Ad]2 [Ge]2 | [EG]2 [DG]2 [DF]2 E6 |] %12
V:2
 x8 E2 x2 | x2 E2 x8 | x4 C2 x6 | x4 B,2 x6 | x8 E2 x2 | x2 E2 x8 | x12 | x12 | x12 | x12 | x12 | %11
 x6 E6 |] %12
V:3
 [E,B,]4 [E,B,][E,B,] [E,B,]2 [E,G,]2 [E,A,]2 | [E,B,]2 [E,G,]2 [E,C]2 [E,B,]6 | %2
 [F,=A,]2 [F,A,]2 [F,A,]2 [B,,_A,]6 | [B,,A,]2 [D,A,]2 [D,A,]2 [E,G,]6 | %4
 [E,B,]4 [E,B,][E,B,] [E,B,]2 [E,G,]2 [E,A,]2 | [E,B,]2 [E,G,]2 [E,C]2 [E,B,]6 | %6
 [F,=A,]4 [F,A,][F,A,] [F,A,]2 [F,A,]2 [F,A,]2 | B,6- [A,B,]6 | [G,B,]2 [E,B,]2 A,2 [G,B,]6 | %9
 [F,B,]2 [B,,B,]2 [F,B,]2 [E,B,]6 | [E,B,]2 [F,B,]2 [G,E]2 [A,E]2 [F,F]2 [C,E]2 | %11
 [B,,E]2 [B,,B,]2 [B,,A,]2 [E,G,]6 |] %12
V:4
 x12 | x12 | x12 | x12 | x12 | x12 | x12 | B,6 x6 | x4 A,2 x6 | x12 | x12 | x12 |] %12

